public/logos/AM.svg

<?xml version="1.0" encoding="UTF-8"?>
<svg xmlns="http://www.w3.org/2000/svg" xmlns:xlink="http://www.w3.org/1999/xlink" width="176pt" height="30.99pt" viewBox="0 0 176 30.99" version="1.1">
<defs>
<clipPath id="clip1">
  <path d="M 10 29 L 20 29 L 20 30.988281 L 10 30.988281 Z M 10 29 "/>
</clipPath>
</defs>
<g id="surface1">
<path style=" stroke:none;fill-rule:evenodd;fill:rgb(4.762268%,18.330383%,35.035706%);fill-opacity:1;" d="M 173.808594 23.359375 C 172.816406 23.359375 172.046875 22.59375 172.046875 21.550781 C 172.046875 20.523438 172.816406 19.75 173.808594 19.75 C 174.792969 19.75 175.5625 20.523438 175.5625 21.550781 C 175.5625 22.59375 174.792969 23.359375 173.808594 23.359375 Z M 173.808594 19.394531 C 172.621094 19.394531 171.609375 20.308594 171.609375 21.550781 C 171.609375 22.804688 172.621094 23.714844 173.808594 23.714844 C 174.988281 23.714844 176 22.804688 176 21.550781 C 176 20.308594 174.988281 19.394531 173.808594 19.394531 "/>
<path style=" stroke:none;fill-rule:evenodd;fill:rgb(4.762268%,18.330383%,35.035706%);fill-opacity:1;" d="M 173.351562 21.402344 L 173.351562 20.632812 L 173.863281 20.632812 C 174.128906 20.632812 174.410156 20.683594 174.410156 20.996094 C 174.410156 21.378906 174.128906 21.402344 173.804688 21.402344 Z M 174.15625 21.703125 C 174.527344 21.660156 174.804688 21.460938 174.804688 21.019531 C 174.804688 20.523438 174.515625 20.308594 173.925781 20.308594 L 172.972656 20.308594 L 172.972656 22.804688 L 173.351562 22.804688 L 173.351562 21.71875 L 173.785156 21.71875 L 174.441406 22.804688 L 174.867188 22.804688 L 174.15625 21.703125 "/>
<path style=" stroke:none;fill-rule:evenodd;fill:rgb(4.762268%,18.330383%,35.035706%);fill-opacity:1;" d="M 27.269531 9.371094 C 27.886719 9.378906 28.308594 9.566406 28.652344 9.726562 C 29.367188 10.0625 30.203125 10.453125 31.253906 10.957031 C 31.253906 10.960938 32.945312 9.757812 33.035156 9.695312 C 33.609375 9.300781 34.164062 9.601562 34.34375 9.9375 C 34.972656 11.128906 36.136719 13.597656 36.75 15.859375 C 36.824219 16.128906 36.738281 16.554688 36.3125 16.679688 C 36.070312 16.75 35.648438 16.8125 35.207031 16.867188 C 34.59375 16.945312 34.609375 17.4375 34.609375 17.738281 C 34.609375 18.109375 34.613281 20.605469 34.613281 21.457031 C 34.628906 21.980469 34.226562 23.691406 32.25 23.691406 C 32.117188 23.691406 27.71875 23.6875 27.738281 23.6875 C 26.03125 23.695312 24.660156 22.253906 24.652344 20.71875 C 24.652344 19.710938 24.652344 12.6875 24.65625 11.902344 C 24.660156 10.378906 26.027344 9.355469 27.269531 9.371094 "/>
<path style=" stroke:none;fill-rule:evenodd;fill:rgb(4.762268%,18.330383%,35.035706%);fill-opacity:1;" d="M 20.136719 23.691406 L 5.472656 23.691406 L 5.472656 25.320312 L 22.679688 25.320312 C 22.679688 25.320312 23.300781 23.878906 23.300781 22.285156 C 23.300781 22.199219 23.304688 11.226562 23.304688 11.226562 C 23.304688 10.355469 23.660156 8.882812 25.453125 8.492188 C 25.5 8.480469 25.550781 8.472656 25.601562 8.460938 C 30.683594 7.261719 35.917969 8.355469 38.867188 9.628906 C 39.402344 9.886719 39.523438 9.460938 39.503906 9.28125 C 39.570312 6.792969 37.679688 3.960938 34.203125 3.792969 C 31.382812 3.726562 29.816406 4.742188 29.242188 5.023438 C 29.199219 5.042969 29.125 5.035156 29.0625 4.960938 C 28.539062 4.449219 27.429688 3.679688 26.179688 3.320312 C 25.992188 3.28125 25.976562 3.007812 26.191406 2.984375 C 28.863281 2.695312 31.203125 3 32.175781 3.15625 C 32.402344 3.195312 32.570312 3.0625 32.480469 2.855469 C 32.414062 2.699219 32.355469 2.625 32.242188 2.382812 C 32.003906 1.871094 31.375 1.328125 30.574219 1.105469 C 28.476562 0.523438 24.902344 0.015625 21.714844 0 C 18.128906 -0.0234375 14.347656 0.691406 13.394531 0.90625 C 13.164062 0.957031 12.84375 1.039062 12.785156 1.050781 C 12.523438 1.101562 12.464844 1.347656 12.578125 1.472656 C 12.648438 1.550781 12.84375 1.714844 12.9375 1.832031 C 13.058594 1.980469 13.113281 2.1875 12.886719 2.410156 L 6.257812 8.367188 L 10.792969 8.367188 L 10.84375 8.363281 C 11.140625 8.355469 11.417969 8.621094 11.421875 8.960938 C 11.421875 9.269531 11.175781 9.558594 10.867188 9.558594 L 4.933594 9.558594 L 3.132812 11.199219 L 10.847656 11.199219 L 10.890625 11.195312 C 11.195312 11.195312 11.429688 11.511719 11.425781 11.796875 C 11.421875 12.0625 11.199219 12.382812 10.890625 12.382812 L 10.84375 12.386719 L 1.808594 12.386719 L 0.00390625 14.019531 L 15.589844 14.019531 L 15.640625 14.023438 C 15.945312 14.023438 16.183594 14.335938 16.1875 14.613281 C 16.191406 14.933594 15.964844 15.222656 15.652344 15.21875 L 0 15.21875 L 0 16.84375 L 15.574219 16.84375 L 15.621094 16.851562 C 15.976562 16.851562 16.183594 17.175781 16.183594 17.472656 C 16.183594 17.742188 15.921875 18.03125 15.613281 18.03125 L 0 18.03125 L 0 19.675781 L 20.382812 19.675781 C 20.71875 19.683594 20.933594 19.972656 20.925781 20.289062 C 20.917969 20.566406 20.6875 20.863281 20.382812 20.863281 L 20.339844 20.859375 L 5.476562 20.859375 L 5.476562 22.496094 L 20.445312 22.496094 C 20.71875 22.496094 20.957031 22.839844 20.957031 23.113281 C 20.957031 23.390625 20.714844 23.691406 20.4375 23.691406 L 20.136719 23.691406 "/>
<g clip-path="url(#clip1)" clip-rule="nonzero">
<path style=" stroke:none;fill-rule:evenodd;fill:rgb(4.762268%,18.330383%,35.035706%);fill-opacity:1;" d="M 10.945312 29.320312 L 10.945312 30.984375 C 10.945312 30.984375 13.148438 30.992188 14.40625 30.984375 C 17.5 30.96875 19.53125 29.320312 19.53125 29.320312 L 10.945312 29.320312 "/>
</g>
<path style=" stroke:none;fill-rule:evenodd;fill:rgb(4.762268%,18.330383%,35.035706%);fill-opacity:1;" d="M 10.945312 26.511719 L 10.945312 28.144531 L 20.898438 28.144531 C 21.359375 27.683594 21.949219 26.828125 22.101562 26.515625 L 10.945312 26.511719 "/>
<path style=" stroke:none;fill-rule:evenodd;fill:rgb(4.762268%,18.330383%,35.035706%);fill-opacity:1;" d="M 164.71875 21.960938 C 164.605469 21.96875 164.496094 21.972656 164.394531 21.976562 C 164.285156 21.972656 164.179688 21.96875 164.066406 21.960938 C 163.445312 21.902344 162.960938 21.683594 162.515625 21.339844 C 162.390625 21.238281 162.261719 21.117188 162.140625 20.980469 C 161.492188 20.246094 161.140625 19 161.058594 18.015625 C 160.867188 15.71875 161.328125 12.363281 164.148438 12.140625 C 164.21875 12.132812 164.289062 12.128906 164.359375 12.128906 C 164.371094 12.128906 164.382812 12.128906 164.394531 12.128906 C 164.402344 12.128906 164.414062 12.128906 164.425781 12.128906 C 164.496094 12.128906 164.566406 12.132812 164.640625 12.140625 C 167.457031 12.363281 167.917969 15.71875 167.726562 18.015625 C 167.644531 19 167.328125 20.222656 166.644531 20.980469 C 166.519531 21.117188 166.398438 21.238281 166.269531 21.339844 C 165.824219 21.683594 165.296875 21.914062 164.71875 21.960938 Z M 171.472656 16.433594 C 171.472656 16.402344 171.464844 16.375 171.464844 16.34375 C 171.40625 15.074219 170.984375 13.941406 170.394531 13.0625 C 169.160156 11.128906 166.996094 10.085938 164.394531 10.117188 C 161.789062 10.085938 159.625 11.128906 158.390625 13.0625 C 157.800781 13.941406 157.378906 15.074219 157.320312 16.34375 C 157.320312 16.375 157.3125 16.402344 157.3125 16.433594 C 156.957031 20.679688 159.433594 23.617188 163.652344 23.953125 C 163.902344 23.972656 164.148438 23.980469 164.394531 23.980469 C 164.636719 23.980469 164.882812 23.972656 165.132812 23.953125 C 169.355469 23.617188 171.828125 20.679688 171.472656 16.433594 "/>
<path style=" stroke:none;fill-rule:evenodd;fill:rgb(4.762268%,18.330383%,35.035706%);fill-opacity:1;" d="M 143.421875 13.273438 C 143.421875 12.21875 143.523438 10.375 143.523438 10.375 L 140.0625 10.375 C 140.0625 10.375 140.164062 12.21875 140.164062 13.273438 L 140.15625 20.839844 C 140.15625 21.890625 140.0625 23.679688 140.0625 23.679688 L 143.523438 23.679688 C 143.523438 23.679688 143.429688 21.890625 143.429688 20.839844 L 143.421875 13.273438 "/>
<path style=" stroke:none;fill-rule:evenodd;fill:rgb(4.762268%,18.330383%,35.035706%);fill-opacity:1;" d="M 123.21875 21.621094 C 122.492188 21.621094 121.542969 21.621094 120.8125 21.625 C 120.777344 20.289062 120.765625 18.996094 120.757812 17.824219 L 120.757812 17.640625 C 120.757812 17.628906 120.757812 17.617188 120.757812 17.609375 L 124.753906 17.609375 L 124.753906 15.726562 L 120.761719 15.726562 C 120.773438 13.699219 120.8125 12.371094 120.8125 12.371094 L 125.769531 12.367188 L 125.769531 10.371094 C 122.304688 10.382812 117.300781 10.371094 117.300781 10.371094 C 117.300781 10.371094 117.371094 12.210938 117.371094 13.257812 L 117.371094 20.8125 C 117.371094 21.773438 117.3125 23.40625 117.304688 23.675781 L 126.097656 23.675781 L 126.105469 21.566406 C 126.105469 21.566406 124.371094 21.621094 123.21875 21.621094 "/>
<path style=" stroke:none;fill-rule:evenodd;fill:rgb(4.762268%,18.330383%,35.035706%);fill-opacity:1;" d="M 65.554688 21.621094 C 64.832031 21.621094 63.878906 21.621094 63.148438 21.625 C 63.113281 20.289062 63.101562 18.996094 63.09375 17.824219 L 63.09375 17.644531 C 63.09375 17.628906 63.09375 17.617188 63.09375 17.609375 L 67.089844 17.609375 L 67.089844 15.726562 L 63.097656 15.726562 C 63.109375 13.703125 63.148438 12.371094 63.148438 12.371094 L 68.105469 12.367188 L 68.105469 10.371094 C 64.640625 10.382812 59.636719 10.371094 59.636719 10.371094 C 59.636719 10.371094 59.710938 12.210938 59.710938 13.257812 L 59.710938 20.8125 C 59.710938 21.773438 59.652344 23.40625 59.640625 23.675781 L 68.433594 23.675781 L 68.441406 21.566406 C 68.441406 21.566406 66.710938 21.621094 65.554688 21.621094 "/>
<path style=" stroke:none;fill-rule:evenodd;fill:rgb(4.762268%,18.330383%,35.035706%);fill-opacity:1;" d="M 134.535156 16.523438 L 138.355469 10.378906 L 135.710938 10.378906 L 135.6875 10.433594 C 134.886719 11.816406 133.890625 13.492188 133.496094 14.101562 L 133.339844 14.351562 L 131.128906 10.378906 L 127.152344 10.378906 L 130.984375 17.257812 L 126.988281 23.679688 L 129.621094 23.679688 C 131.324219 20.769531 132.199219 19.429688 132.199219 19.429688 L 134.570312 23.679688 L 138.53125 23.679688 L 134.535156 16.523438 "/>
<path style=" stroke:none;fill-rule:evenodd;fill:rgb(4.762268%,18.330383%,35.035706%);fill-opacity:1;" d="M 154.210938 21.867188 C 151.132812 21.867188 149.476562 19.605469 149.558594 16.820312 C 149.632812 14.394531 150.742188 12.332031 153.382812 12.15625 C 154.394531 12.089844 155.21875 12.265625 156.640625 12.644531 L 156.496094 10.566406 C 156.496094 10.566406 155.292969 10.183594 153.570312 10.117188 C 151.375 10.03125 149.394531 10.457031 147.808594 11.914062 C 146.398438 13.210938 145.558594 15.125 145.558594 16.984375 C 145.558594 19.042969 146.402344 20.941406 147.992188 22.253906 C 149.644531 23.644531 151.417969 23.960938 153.523438 23.960938 C 154.90625 23.960938 155.722656 23.867188 157.0625 23.503906 L 156.863281 21.464844 C 156.578125 21.5625 155.605469 21.867188 154.210938 21.867188 "/>
<path style=" stroke:none;fill-rule:evenodd;fill:rgb(4.762268%,18.330383%,35.035706%);fill-opacity:1;" d="M 109.777344 8.382812 L 113.636719 8.378906 L 113.742188 9.265625 C 114.601562 18.15625 115.132812 23.683594 115.132812 23.683594 L 111.117188 23.683594 L 110.722656 18.175781 L 110.355469 13.257812 L 106.953125 23.675781 C 106.054688 23.679688 104.808594 23.675781 104.808594 23.675781 C 104.808594 23.675781 103.730469 19.972656 103.535156 19.457031 L 101.585938 13.207031 C 101.585938 13.207031 101.285156 16.6875 101.171875 18.175781 C 100.9375 21.160156 100.730469 23.683594 100.730469 23.683594 L 97.734375 23.683594 C 97.734375 23.683594 98.960938 11.242188 99.050781 10.484375 C 99.144531 9.703125 99.292969 8.378906 99.292969 8.378906 L 103.226562 8.378906 L 106.492188 17.339844 L 109.777344 8.382812 "/>
<path style=" stroke:none;fill-rule:evenodd;fill:rgb(4.762268%,18.330383%,35.035706%);fill-opacity:1;" d="M 89.398438 21.953125 C 89.285156 21.960938 89.175781 21.964844 89.070312 21.96875 C 88.964844 21.964844 88.859375 21.964844 88.746094 21.953125 C 88.128906 21.894531 87.644531 21.675781 87.203125 21.335938 C 87.078125 21.230469 86.953125 21.113281 86.828125 20.976562 C 86.183594 20.25 85.835938 19.007812 85.75 18.023438 C 85.558594 15.738281 86.019531 12.398438 88.828125 12.175781 C 88.898438 12.167969 88.96875 12.167969 89.039062 12.164062 C 89.046875 12.164062 89.058594 12.164062 89.070312 12.164062 C 89.082031 12.164062 89.09375 12.164062 89.105469 12.164062 C 89.171875 12.167969 89.242188 12.167969 89.316406 12.175781 C 92.121094 12.398438 92.582031 15.738281 92.390625 18.023438 C 92.308594 19.007812 91.992188 20.222656 91.3125 20.976562 C 91.191406 21.113281 91.066406 21.230469 90.941406 21.335938 C 90.496094 21.675781 89.972656 21.90625 89.398438 21.953125 Z M 96.121094 16.449219 C 96.117188 16.417969 96.113281 16.390625 96.109375 16.359375 C 96.054688 15.097656 95.636719 13.96875 95.046875 13.09375 C 93.816406 11.167969 91.664062 10.128906 89.070312 10.160156 C 86.480469 10.128906 84.324219 11.167969 83.09375 13.09375 C 82.507812 13.96875 82.085938 15.097656 82.03125 16.359375 C 82.027344 16.390625 82.023438 16.417969 82.023438 16.449219 C 81.667969 20.675781 84.132812 23.601562 88.335938 23.9375 C 88.582031 23.957031 88.828125 23.964844 89.070312 23.964844 C 89.3125 23.964844 89.558594 23.957031 89.808594 23.9375 C 94.007812 23.601562 96.472656 20.675781 96.121094 16.449219 "/>
<path style=" stroke:none;fill-rule:evenodd;fill:rgb(4.762268%,18.330383%,35.035706%);fill-opacity:1;" d="M 49 17.160156 L 50.667969 12.207031 L 50.761719 11.917969 L 52.503906 17.160156 Z M 58.800781 23.675781 C 58.6875 23.402344 57.972656 21.714844 57.449219 20.351562 L 52.953125 8.378906 L 49.453125 8.378906 C 49.453125 8.378906 48.453125 11.183594 48.3125 11.648438 L 45.027344 20.933594 C 44.597656 22.121094 44.003906 23.679688 44.003906 23.679688 L 46.859375 23.679688 C 46.859375 23.679688 47.667969 21.097656 47.835938 20.632812 L 48.273438 19.339844 L 53.226562 19.339844 L 53.902344 21.304688 C 54.042969 21.675781 54.632812 23.648438 54.640625 23.675781 L 58.800781 23.675781 "/>
<path style=" stroke:none;fill-rule:evenodd;fill:rgb(4.762268%,18.330383%,35.035706%);fill-opacity:1;" d="M 76.089844 16.25 C 75.574219 16.519531 74.40625 16.445312 73.832031 16.410156 L 73.875 12.609375 L 74.199219 12.585938 C 75.257812 12.5 76.03125 12.644531 76.347656 12.785156 C 76.824219 12.996094 77.101562 13.445312 77.128906 14.195312 C 77.167969 15.316406 76.742188 15.914062 76.089844 16.25 Z M 82.199219 23.679688 C 81.371094 22.492188 81.066406 22 80.433594 21.128906 L 78.046875 17.421875 C 79.195312 16.855469 80.273438 15.90625 80.433594 13.921875 C 80.535156 12.675781 79.871094 11.644531 79.476562 11.292969 C 78.902344 10.785156 78.339844 10.578125 77.546875 10.484375 C 76.914062 10.398438 76.453125 10.394531 76.070312 10.367188 L 70.453125 10.367188 C 70.453125 10.367188 70.519531 12.210938 70.519531 13.261719 L 70.519531 20.785156 C 70.519531 21.835938 70.453125 23.675781 70.453125 23.675781 L 73.910156 23.675781 C 73.910156 23.675781 73.804688 21.835938 73.804688 20.785156 L 73.832031 18.371094 C 73.832031 18.371094 74.582031 18.371094 75.109375 18.375 L 77.296875 22.382812 C 77.59375 22.890625 78.015625 23.53125 78.117188 23.679688 L 82.199219 23.679688 "/>
</g>
</svg>

<svg xmlns="http://www.w3.org/2000/svg" width="176pt" height="41.32" viewBox="0 0 176 30.99"><defs><clipPath id="a"><path d="M10 29h10v1.988H10Zm0 0"/></clipPath></defs><path d="M173.809 23.36c-.993 0-1.762-.766-1.762-1.81 0-1.027.77-1.8 1.762-1.8.984 0 1.754.773 1.754 1.8 0 1.044-.77 1.81-1.754 1.81m0-3.965c-1.188 0-2.2.914-2.2 2.156 0 1.254 1.012 2.164 2.2 2.164 1.18 0 2.191-.91 2.191-2.164 0-1.242-1.012-2.156-2.191-2.156" style="stroke:none;fill-rule:evenodd;fill:#0c2f59;fill-opacity:1"/><path d="M173.352 21.402v-.77h.511c.266 0 .547.052.547.364 0 .383-.281.406-.605.406Zm.804.301c.371-.043.649-.242.649-.683 0-.497-.29-.711-.88-.711h-.952v2.496h.379v-1.086h.433l.656 1.086h.426zM27.27 9.371c.617.008 1.039.195 1.382.356.715.335 1.551.726 2.602 1.23 0 .004 1.691-1.2 1.781-1.262.574-.394 1.13-.093 1.309.242.629 1.192 1.793 3.66 2.406 5.922.074.27-.012.696-.437.82-.243.071-.665.134-1.106.188-.613.078-.598.57-.598.871l.004 3.719c.016.523-.386 2.234-2.363 2.234l-4.512-.003c-1.707.007-3.078-1.434-3.086-2.97 0-1.007 0-8.03.004-8.816.004-1.523 1.371-2.547 2.614-2.53" style="stroke:none;fill-rule:evenodd;fill:#0c2f59;fill-opacity:1"/><path d="M20.137 23.691H5.473v1.63H22.68s.62-1.442.62-3.036l.005-11.058c0-.872.355-2.344 2.148-2.735q.072-.016.149-.031c5.082-1.2 10.316-.106 13.265 1.168.535.258.656-.168.637-.348.066-2.488-1.824-5.32-5.3-5.488-2.821-.066-4.388.95-4.962 1.23-.043.02-.117.012-.18-.062-.523-.512-1.632-1.281-2.882-1.64-.188-.04-.203-.313.011-.337 2.672-.289 5.012.016 5.985.172.226.04.394-.094.304-.3-.066-.157-.125-.231-.238-.473-.238-.512-.867-1.055-1.668-1.278C28.477.523 24.902.015 21.714 0c-3.585-.023-7.366.691-8.32.906-.23.051-.55.133-.609.145-.262.05-.32.297-.207.422.07.078.266.242.36.359.12.148.175.355-.051.578l-6.63 5.957h4.536l.05-.004c.298-.008.575.258.579.598 0 .309-.246.598-.555.598H4.934l-1.801 1.64h7.715l.043-.004c.304 0 .539.317.535.602-.004.265-.227.586-.535.586l-.047.004H1.809L.004 14.02H15.59l.05.003c.305 0 .544.313.547.59.004.32-.222.61-.535.606H0v1.625h15.574l.047.008c.356 0 .563.324.563.62 0 .27-.262.56-.57.56H0v1.644h20.383c.336.008.55.297.543.613-.008.277-.238.574-.543.574l-.043-.004H5.477v1.637h14.968c.274 0 .512.344.512.617 0 .278-.242.578-.52.578z" style="stroke:none;fill-rule:evenodd;fill:#0c2f59;fill-opacity:1"/><g clip-path="url(#a)"><path d="M10.945 29.32v1.664s2.203.008 3.461 0c3.094-.015 5.125-1.664 5.125-1.664z" style="stroke:none;fill-rule:evenodd;fill:#0c2f59;fill-opacity:1"/></g><path d="M10.945 26.512v1.633h9.953c.461-.461 1.051-1.317 1.204-1.63zM164.719 21.96q-.172.012-.324.017a10 10 0 0 1-.329-.016 2.88 2.88 0 0 1-1.925-.98c-.649-.735-1-1.981-1.082-2.965-.192-2.297.27-5.653 3.09-5.875q.105-.012.21-.012h.066q.105 0 .216.012c2.816.222 3.277 3.578 3.086 5.875-.082.984-.399 2.207-1.082 2.964a3 3 0 0 1-.375.36 2.92 2.92 0 0 1-1.551.62m6.754-5.526c0-.032-.008-.059-.008-.09a6.45 6.45 0 0 0-1.07-3.282c-1.235-1.933-3.399-2.976-6-2.945-2.606-.031-4.77 1.012-6.004 2.945a6.45 6.45 0 0 0-1.07 3.282c0 .031-.008.058-.008.09-.356 4.246 2.12 7.183 6.34 7.52q.373.027.742.026.363.002.738-.027c4.222-.336 6.695-3.273 6.34-7.52M143.422 13.273c0-1.054.101-2.898.101-2.898h-3.46s.101 1.844.101 2.898l-.008 7.567c0 1.05-.094 2.84-.094 2.84h3.461s-.093-1.79-.093-2.84zM123.219 21.621c-.727 0-1.676 0-2.406.004a193 193 0 0 1-.055-3.8v-.216h3.996v-1.882h-3.992c.011-2.028.05-3.356.05-3.356l4.958-.004v-1.996c-3.465.012-8.47 0-8.47 0s.071 1.84.071 2.887v7.555c0 .96-.058 2.593-.066 2.863h8.793l.007-2.11s-1.734.055-2.886.055M65.555 21.621c-.723 0-1.676 0-2.407.004a193 193 0 0 1-.054-3.8v-.216h3.996v-1.882h-3.992c.011-2.024.05-3.356.05-3.356l4.957-.004v-1.996c-3.464.012-8.468 0-8.468 0s.074 1.84.074 2.887v7.555c0 .96-.059 2.593-.07 2.863h8.793l.007-2.11s-1.73.055-2.886.055M134.535 16.523l3.82-6.144h-2.644l-.024.055c-.8 1.382-1.796 3.058-2.19 3.668l-.157.25-2.211-3.973h-3.977l3.832 6.879-3.996 6.422h2.633c1.703-2.91 2.578-4.25 2.578-4.25l2.371 4.25h3.961zM154.21 21.867c-3.077 0-4.733-2.262-4.651-5.047.074-2.425 1.183-4.488 3.824-4.664 1.012-.066 1.836.11 3.258.489l-.145-2.079s-1.203-.382-2.926-.449c-2.195-.086-4.175.34-5.761 1.797-1.41 1.297-2.25 3.211-2.25 5.07 0 2.059.843 3.957 2.433 5.27 1.653 1.39 3.426 1.707 5.531 1.707 1.383 0 2.2-.094 3.54-.457l-.2-2.04c-.285.099-1.258.403-2.652.403M109.777 8.383l3.86-.004.105.887c.86 8.89 1.39 14.418 1.39 14.418h-4.015l-.394-5.508-.368-4.918-3.402 10.418c-.898.004-2.144 0-2.144 0s-1.079-3.703-1.274-4.219l-1.95-6.25s-.3 3.48-.413 4.969c-.234 2.984-.442 5.508-.442 5.508h-2.996s1.227-12.442 1.317-13.2c.094-.78.242-2.105.242-2.105h3.934l3.265 8.96zM89.398 21.953q-.17.011-.328.016c-.105-.004-.21-.004-.324-.016a2.9 2.9 0 0 1-1.543-.617 4 4 0 0 1-.375-.36c-.644-.726-.992-1.968-1.078-2.953-.191-2.285.27-5.625 3.078-5.847.07-.008.14-.008.211-.012h.066c.067.004.137.004.211.012 2.805.222 3.266 3.562 3.075 5.847-.082.985-.399 2.2-1.079 2.954a3.5 3.5 0 0 1-.37.359c-.446.34-.97.57-1.544.617m6.723-5.504-.012-.09a6.36 6.36 0 0 0-1.062-3.265c-1.23-1.926-3.383-2.965-5.977-2.934-2.59-.031-4.746 1.008-5.976 2.934a6.4 6.4 0 0 0-1.063 3.265c-.004.032-.008.059-.008.09-.355 4.227 2.11 7.153 6.313 7.488q.37.029.734.028.364 0 .739-.027c4.199-.336 6.664-3.262 6.312-7.489M49 17.16l1.668-4.953.094-.289 1.742 5.242Zm9.8 6.516c-.112-.274-.827-1.961-1.35-3.324L52.952 8.379h-3.5s-1 2.805-1.14 3.27l-3.286 9.285c-.43 1.187-1.023 2.746-1.023 2.746h2.855s.809-2.582.977-3.047l.437-1.293h4.954l.675 1.965c.141.37.73 2.343.739 2.37zM76.09 16.25c-.516.27-1.684.195-2.258.16l.043-3.8.324-.024c1.059-.086 1.832.059 2.149.2.476.21.754.66.78 1.41.04 1.12-.386 1.718-1.038 2.054m6.11 7.43c-.829-1.188-1.134-1.68-1.766-2.551l-2.387-3.707c1.148-.567 2.226-1.516 2.387-3.5.101-1.246-.563-2.277-.957-2.629-.575-.508-1.137-.715-1.93-.809-.633-.086-1.094-.09-1.477-.117h-5.617s.067 1.844.067 2.895v7.523c0 1.05-.067 2.89-.067 2.89h3.457s-.105-1.84-.105-2.89l.027-2.414s.75 0 1.277.004l2.188 4.008c.297.508.719 1.148.82 1.297z" style="stroke:none;fill-rule:evenodd;fill:#0c2f59;fill-opacity:1"/></svg>
